X: 36075
T: Scatter The Mud
R: jig
M: 6/8
K: Adorian
eAA B2A|eAA ABd|eAA BAB|dBG GBd|
eAA B2A|eAA AGE|GAB dge|dBA A3:|
eaa egg|dBA ABd|eaa egg|dBG GBd|
eaf g2e|dBA AGE|GAB dge|dBA ABd:|

